X: 1
T: Lady Nelly Wemyes's Jig
O: Gow's 1st Repository
B: Gow's 1st Repository
S: handwritten MS by Barbara McOwen dated Dec 1981
R: jig
Z: 2006 John Chambers <jc:trillian.mit.edu>
M: 6/8
L: 1/8
K: A
B | "A"c2e ega | cAc e2d | cde ef=g | "G"B=GB d2B | "A"c2e efg |
| "D"agf "A"edc | "Bm"dfd "A"cac | "G"B=GB d2 :: B | "A"acA ecA | acA "E"efg | "A"acA ecA |
| "G"B=GB d2B | "A"acA ecA | "F#m"agf edc | "Bm"dfd "A"cac |1 "G"B=GB d2y :|2 "G"B=GB "A"A2y |]
